X:59
T: Is deas an Buachaill pidn, S. 171
N: I0558
O: Irland
S: O'SULLIVAN, Donal: Song of the Irish]
R: Scherzlied]
M: 2/4
L: 1/16
K: Ab
A2 | c2c2c2d2 | e4e2c2 | d4c2d2 | e2d2B3
B | c2c2c2d2 | e4d2c2 | d2c2B2A2 | A2F2E4 |
c2A2F2E2 | E4E2F2 | A2A2B2c2 | d2c2B4 |
c2A2F2E2 | E4E2F2 | A2A2B3B | c2A2A2

@@@ Tune index: 7334
